X:13027
T:March of the Kings of Laois
T:Rory of the Hills; Rory O'Moore; Ruairi Og O Mordha
R:March
C:Trad.
O:Ireland
Z:Paul Hardy's Session Tunebook 2015 (see www.paulhardy.net). Creative Commons cc by-nc-sa licenced.
M:6/8
L:1/8
Q:3/8=60
K:Dmix
"D" A2F .A2D|A2F .A2D|"G" B2G "D" A2F|"C" G2F E>FG|"D" A2F .A2D|A2F .A2d|"G" B2d "D" A>dG|"C" F>dF E2D||
"D" F>ED "G" G>AB|"D" A3 A>GF|"C" E>cG E>CE|G>cG E>CE|"D" D>ED D>ED|D>ED D3||
||"G" B2G .d2G|B>AG .d2G|"D" A2d A2F|A2d A>dA|"G" B2d "D" d>BA|"C" G>cG E>FG|
"D" F>ED "G" G>AB|"D" A3 A>GF|"C" E>cG E>CE|G>cG E>CE|"D" D>ED D>ED|D>ED D3|]

